X: 080368
T: Horse Keane's
C:  Jimmy Keane
Z: B.Black
R: hornpipe
M: C|
L: 1/8
K: G
d>c | (3BcB (3ABA G>AB>d | e>E (3EEE E2 (3GFE |\
D>EG>A B>dd>B | B>AG>B A2 d>c |
(3BcB (3ABA G>AB>d | e>E (3EEE E2 (3GFE |\
D>EG>A A>DF>A | G>B (3AGF G2 :|
(3Bcd | e2 e>f g>a (3gfe | d>bg>e d>B (3GAB |\
c2 c>e d>BG>A | B>AA>G A2 d>c |
(3BcB (3ABA G>AB>d | e>E (3EEE E2 (3GFE |\
D>EG>A A>DF>A | G>B (3AGF G2 :|
